frontend/public/svg/hand gestures/2-scroll-up.svg

<svg width="112" height="157" viewBox="0 0 112 157" fill="none" xmlns="http://www.w3.org/2000/svg">
<g clip-path="url(#clip0)">
<path d="M5.30536 97.5978C5.91734 98.1288 6.50082 98.6913 7.05322 99.2839C7.94387 100.274 8.87613 101.263 9.77794 102.22C12.2978 104.747 14.5974 107.483 16.6522 110.4C18.7392 113.704 20.638 117.123 22.3394 120.642C23.2885 122.515 24.2705 124.449 25.2977 126.321L25.8883 127.398C28.2413 131.687 30.6749 136.122 33.3593 140.304C34.8295 142.46 36.6442 144.361 38.7308 145.929C42.5909 148.888 46.8727 151.252 51.4336 152.942C56.2859 154.882 61.4643 155.879 66.6902 155.877C72.5749 155.805 78.4012 154.709 83.9092 152.636C88.8435 150.753 93.3204 147.84 97.0419 144.091C100.763 140.344 103.645 135.846 105.494 130.898C110.518 117.827 112.49 103.513 111.524 87.1417C111.274 84.3096 110.556 81.5385 109.401 78.9408C108.371 76.3246 106.417 74.1764 103.91 72.9031C101.403 71.6298 98.516 71.32 95.7961 72.0321C94.4789 72.4109 93.2134 72.951 92.0281 73.6402C91.5621 73.885 91.0823 74.137 90.5947 74.3733C89.0739 70.9111 87.011 68.7728 84.2938 67.8408C82.2296 67.1969 80.1162 66.7224 77.9746 66.4211C77.0656 66.2663 76.1277 66.1074 75.1753 65.921C75.1753 65.8239 75.1753 65.7202 75.1792 65.6119C75.1865 65.0442 75.1963 64.3373 75.1687 63.6258C75.0637 60.9427 74.9659 58.2588 74.8754 55.5739C74.6391 48.851 74.3956 41.8984 73.9781 35.0699C73.5561 28.1632 71.7834 22.5036 68.5581 17.7655C65.6996 13.565 61.0589 12.4492 57.0067 14.9873C55.1592 16.1341 53.605 17.6965 52.4681 19.5501C51.4935 21.3369 50.676 23.2051 50.0251 25.1336C49.7987 25.7446 49.5724 26.357 49.3354 26.9648C49.2317 26.7987 49.1271 26.6294 49.0201 26.4568C48.4767 25.5766 47.9149 24.6656 47.2527 23.7973C44.6378 20.3705 41.2006 19.6098 37.3099 21.5946C36.0553 22.2127 34.9501 23.0957 34.0701 24.1826C33.1902 25.2696 32.5566 26.5345 32.2133 27.8902C31.7777 29.4217 31.4983 30.9933 31.3791 32.5811C31.3134 33.6378 31.2347 34.6945 31.1605 35.7512C30.875 39.7798 30.5803 43.9462 30.6013 48.0483C30.64 55.6343 30.8162 63.3443 30.9862 70.8009C31.0636 74.202 31.1371 77.6031 31.2066 81.0036C31.2283 82.1194 31.2222 83.2352 31.2163 84.3588C31.2163 84.7526 31.2148 85.1451 31.2118 85.5369C31.0431 85.3991 30.8779 85.2573 30.7138 85.1149C30.4099 84.8524 30.1066 84.5938 29.7863 84.3569C23.2951 79.5656 16.2735 77.8164 8.91137 79.1527C7.228 79.4028 5.63958 80.0893 4.30386 81.1441C2.96814 82.1982 1.93163 83.5843 1.29778 85.1635C0.689607 86.8477 0.526176 88.6598 0.823156 90.4254C1.12014 92.1916 1.86749 93.8508 2.99311 95.2429C3.68896 96.0981 4.46304 96.8863 5.30536 97.5978ZM36.8013 68.1171C36.7586 66.2728 36.6856 64.399 36.6147 62.5875C36.4789 59.1089 36.338 55.5174 36.4141 51.9916C36.5401 46.1187 36.9239 40.1493 37.2954 34.3761L37.4778 31.523C37.6392 28.9784 38.2492 26.5086 41.5591 25.637C43.6771 27.1669 44.9909 29.4982 45.573 32.7583C46.4231 37.3705 47.0203 42.0259 47.3616 46.7035C47.8171 53.3922 48.1605 60.203 48.492 66.7873C48.6621 70.1622 48.8371 73.5365 49.0169 76.9107C49.0575 77.6176 49.218 78.312 49.4915 78.965C49.7297 79.6299 50.2108 80.1799 50.8382 80.5048C51.4656 80.829 52.1926 80.9039 52.8729 80.7135C53.5156 80.6289 54.1 80.2968 54.5022 79.7881C54.9043 79.2794 55.0926 78.6342 55.0271 77.9891C55.0127 77.0787 55.0331 76.148 55.0521 75.2475C55.1218 73.5726 55.0887 71.8943 54.9534 70.2233C53.9938 60.8036 54.5179 51.2309 55.0252 41.9732L55.1989 38.6961C55.2956 35.8023 55.5376 32.9152 55.9241 30.0456C56.3588 27.6629 57.0744 25.3401 58.0559 23.1258C58.6099 22.0915 59.4004 21.2028 60.3631 20.532C60.5524 20.3463 60.7823 20.2071 61.0348 20.1258C61.2873 20.0445 61.5552 20.0231 61.8174 20.0634C62.0606 20.1475 62.2809 20.2871 62.4609 20.4711C62.6409 20.6551 62.7756 20.8783 62.8545 21.1234C63.1223 21.7456 63.4123 22.3671 63.703 22.99C64.6201 24.7359 65.2945 26.599 65.707 28.5275C66.6994 34.3683 67.3308 40.2646 67.5992 46.183C68.0271 59.0216 67.699 68.845 66.534 78.0357C66.5084 78.2647 66.4972 78.4958 66.4985 78.7261C66.4985 78.8416 66.4985 78.9565 66.4906 79.0714C66.3738 81.7545 66.6528 83.0311 68.6165 83.5076C70.5252 83.967 73.2043 82.9575 73.9985 80.7641C74.5597 79.0399 74.9042 77.2527 75.0237 75.4431C75.2101 73.4899 75.7844 72.2054 76.7302 71.6259C77.676 71.0463 79.0792 71.1166 80.8999 71.8359C82.0189 72.2244 83.0153 72.9031 83.7878 73.801C84.5603 74.6995 85.0814 75.7864 85.2974 76.9514C85.5546 78.499 85.7043 80.0624 85.7469 81.6304C85.7745 82.1732 85.8014 82.7147 85.8369 83.2549C85.9314 84.6745 86.3088 86.3646 88.4084 86.8352C90.2383 87.246 91.2608 86.0633 92.0182 84.8531C92.3366 84.3457 92.6398 83.8259 92.9437 83.3061C93.5633 82.1765 94.2701 81.0975 95.0584 80.0782C96.4761 78.3494 98.1005 77.5034 99.6226 77.6931C101.145 77.8827 102.522 79.1114 103.475 81.148C105.819 86.3456 106.68 92.0898 105.961 97.7455C105.24 104.501 104.222 111.566 102.848 119.343C101.725 125.159 99.3115 130.65 95.785 135.41C92.3064 140.279 87.017 143.845 80.0572 146.01C66.9658 150.079 54.758 147.913 42.7378 139.391C41.566 138.593 40.544 137.595 39.7186 136.442C37.9386 133.809 35.8756 130.666 34.074 127.331C31.5799 122.711 29.1024 117.81 26.4902 112.352C22.27 103.531 17.0244 96.7748 10.4545 91.6954C10.2894 91.5674 10.1334 91.4282 9.98783 91.2786C9.84961 91.1362 9.70928 90.9944 9.56706 90.852C8.215 89.4914 6.93796 88.2063 7.76757 86.1585C8.55518 84.2092 10.5622 83.904 12.3094 83.904C12.4039 83.904 12.4969 83.904 12.5895 83.904C20.1728 84.0352 25.4807 86.7715 28.8175 92.2775C29.3278 93.2312 29.7084 94.2492 29.9491 95.3039C30.039 95.6281 30.1289 95.9524 30.2254 96.2707C31.074 99.0811 32.6027 99.5524 33.723 99.4493C35.5148 99.2885 36.643 98.1537 37.0762 96.0764C37.2533 95.1746 37.328 94.2551 37.2992 93.3362C37.1424 84.0727 36.9765 75.8218 36.8013 68.1171Z" fill="black"/>
<path d="M3.09687 21.84C3.47743 21.8623 3.85853 21.8053 4.21598 21.6728C4.57341 21.5403 4.89946 21.3351 5.17356 21.0701C6.11796 20.1843 7.01221 19.2465 7.85213 18.261L8.20045 17.8672C9.48884 16.416 10.7604 14.9511 12.0369 13.4868L13.4768 11.8341L13.6835 11.9181C13.6835 12.1855 13.6819 12.4529 13.6784 12.7202C13.6725 13.4605 13.6667 14.2002 13.6883 14.9393L13.8332 19.8014C14.0459 26.9174 14.2649 34.275 14.5354 41.5104C14.6108 43.1025 14.8705 44.6803 15.3093 46.2124C15.4547 46.8858 15.8312 47.487 16.3736 47.9116C16.916 48.3363 17.5899 48.5577 18.2785 48.5372C18.4333 48.5372 18.5881 48.5283 18.742 48.5103C19.445 48.4557 20.1032 48.1433 20.5901 47.6333C21.0771 47.1232 21.3584 46.4513 21.3804 45.7464C21.5208 44.7279 21.5713 43.6989 21.5314 42.6715C21.4001 40.482 21.2472 38.2924 21.0943 36.1035C20.8317 32.3171 20.5561 28.4014 20.4058 24.5481C20.2746 21.229 20.3073 17.9519 20.3401 14.4818C20.3519 13.2378 20.3611 11.981 20.3677 10.7111L21.3567 11.9011C22.6694 13.4763 23.9396 15.0069 25.2194 16.5269L25.5902 16.9706C26.1781 17.7086 26.8138 18.4069 27.4936 19.0611C28.9053 20.3613 30.3159 20.5273 31.5767 19.5435C32.8782 18.5262 33.0553 17.0415 32.0629 15.4742C31.3171 14.3337 30.482 13.2544 29.5651 12.2463C27.854 10.3141 26.1237 8.39886 24.3935 6.48369C23.3395 5.31673 22.2865 4.14822 21.2346 2.97819C19.7906 1.3636 18.7648 0.702014 17.7068 0.693481H17.6866C16.6746 0.693481 15.6834 1.29731 14.378 2.70713C11.6423 5.66393 9.00065 8.79398 6.44554 11.821C5.49734 12.9447 4.54701 14.0661 3.59489 15.1854C3.43737 15.3698 3.27157 15.5536 3.10552 15.738C2.45397 16.3773 1.92042 17.1268 1.53005 17.9519C1.17825 18.8438 1.13627 20.2674 1.67972 21.013C1.84278 21.2444 2.05374 21.4381 2.29823 21.5807C2.54273 21.7234 2.81517 21.8118 3.09687 21.84Z" fill="black"/>
</g>
<defs>
<clipPath id="clip0">
<rect width="111.577" height="155.552" fill="white" transform="translate(0.226074 0.667236)"/>
</clipPath>
</defs>
</svg>

<svg xmlns="http://www.w3.org/2000/svg" width="112" height="157" fill="none" viewBox="0 0 112 157"><g fill="#000" clip-path="url(#a)"><path d="M5.305 97.598a23 23 0 0 1 1.748 1.686c.89.99 1.823 1.979 2.725 2.936a63 63 0 0 1 6.874 8.18 104 104 0 0 1 5.687 10.242c.95 1.873 1.931 3.807 2.959 5.679l.59 1.077c2.353 4.289 4.787 8.724 7.471 12.906a23.8 23.8 0 0 0 5.372 5.625 48.7 48.7 0 0 0 12.703 7.013 41.1 41.1 0 0 0 15.256 2.935 50.6 50.6 0 0 0 17.22-3.241 37.2 37.2 0 0 0 21.585-21.738c5.023-13.071 6.995-27.385 6.029-43.756a25.8 25.8 0 0 0-2.123-8.201 11.496 11.496 0 0 0-13.605-6.909 16.7 16.7 0 0 0-3.768 1.608c-.466.245-.946.497-1.433.733-1.521-3.462-3.584-5.6-6.301-6.532a40 40 0 0 0-6.32-1.42c-.908-.155-1.846-.314-2.799-.5q-.001-.145.004-.31c.007-.567.017-1.274-.01-1.985q-.157-4.025-.294-8.052c-.236-6.723-.48-13.676-.897-20.504-.422-6.907-2.195-12.566-5.42-17.304-2.858-4.201-7.5-5.317-11.551-2.779a13.96 13.96 0 0 0-4.539 4.563 35 35 0 0 0-2.443 5.584c-.226.61-.453 1.223-.69 1.83l-.315-.507c-.543-.88-1.105-1.791-1.767-2.66-2.615-3.427-6.052-4.187-9.943-2.202a9.66 9.66 0 0 0-5.097 6.295 23.6 23.6 0 0 0-.834 4.691c-.066 1.057-.144 2.113-.219 3.17-.285 4.029-.58 8.195-.559 12.297.039 7.586.215 15.296.385 22.753q.117 5.102.22 10.203c.022 1.115.016 2.231.01 3.355q0 .59-.004 1.178-.253-.208-.498-.422a16 16 0 0 0-.928-.758c-6.49-4.791-13.513-6.54-20.875-5.204a9.74 9.74 0 0 0-7.613 6.01 10.41 10.41 0 0 0 1.695 10.08c.696.855 1.47 1.643 2.312 2.355m31.496-29.48a348 348 0 0 0-.186-5.53c-.136-3.48-.277-7.07-.2-10.596.125-5.873.509-11.843.88-17.616l.183-2.853c.161-2.545.771-5.014 4.081-5.886 2.118 1.53 3.432 3.861 4.014 7.121.85 4.612 1.447 9.268 1.789 13.945.455 6.69.798 13.5 1.13 20.084q.255 5.063.525 10.124c.04.707.201 1.401.474 2.054a2.796 2.796 0 0 0 3.382 1.748 2.49 2.49 0 0 0 2.154-2.724c-.014-.91.006-1.841.025-2.742.07-1.674.037-3.353-.099-5.024-.96-9.42-.435-18.992.072-28.25l.174-3.277c.097-2.894.339-5.78.725-8.65a30.7 30.7 0 0 1 2.132-6.92 7.45 7.45 0 0 1 2.307-2.594 1.7 1.7 0 0 1 1.454-.469 1.66 1.66 0 0 1 1.038 1.06c.267.623.557 1.244.848 1.867a21.6 21.6 0 0 1 2.004 5.538 145 145 0 0 1 1.892 17.655c.428 12.839.1 22.662-1.065 31.853a6 6 0 0 0-.035.69q.002.173-.008.345c-.117 2.683.162 3.96 2.126 4.437 1.908.459 4.587-.55 5.382-2.744a21.8 21.8 0 0 0 1.025-5.32c.186-1.954.76-3.239 1.706-3.818s2.35-.51 4.17.21a6.72 6.72 0 0 1 4.397 5.115 34 34 0 0 1 .45 4.68c.028.542.054 1.084.09 1.624.094 1.42.472 3.11 2.571 3.58 1.83.411 2.853-.772 3.61-1.982.319-.507.622-1.027.926-1.547a25 25 0 0 1 2.114-3.228c1.418-1.729 3.042-2.575 4.565-2.385 1.522.19 2.899 1.418 3.852 3.455a30.9 30.9 0 0 1 2.486 16.598c-.721 6.755-1.739 13.82-3.113 21.597a39.6 39.6 0 0 1-7.063 16.067c-3.479 4.869-8.768 8.435-15.728 10.6-13.091 4.069-25.299 1.903-37.32-6.619a12 12 0 0 1-3.018-2.949c-1.78-2.633-3.843-5.776-5.645-9.111-2.494-4.62-4.972-9.521-7.584-14.979-4.22-8.821-9.466-15.577-16.035-20.657a4.5 4.5 0 0 1-.467-.416 42 42 0 0 0-.42-.427c-1.353-1.36-2.63-2.646-1.8-4.693.787-1.95 2.794-2.255 4.541-2.255h.28c7.584.131 12.892 2.868 16.229 8.374.51.953.89 1.971 1.131 3.026q.134.487.276.967c.849 2.81 2.378 3.281 3.498 3.178 1.792-.16 2.92-1.295 3.353-3.373.177-.901.252-1.82.223-2.74-.157-9.263-.322-17.514-.498-25.219M3.097 21.84a2.76 2.76 0 0 0 2.077-.77 35 35 0 0 0 2.678-2.809l.348-.394c1.289-1.451 2.56-2.916 3.837-4.38l1.44-1.653.207.084q0 .402-.006.802c-.006.74-.011 1.48.01 2.22l.145 4.861c.213 7.116.432 14.474.702 21.71a20.6 20.6 0 0 0 .774 4.701 2.95 2.95 0 0 0 2.97 2.325q.232 0 .463-.027a2.86 2.86 0 0 0 2.638-2.764 17.6 17.6 0 0 0 .151-3.075c-.13-2.189-.284-4.379-.437-6.568-.262-3.786-.538-7.702-.688-11.555-.131-3.319-.099-6.596-.066-10.066q.018-1.866.028-3.77l.989 1.19c1.312 1.574 2.583 3.105 3.862 4.625l.371.444a21.5 21.5 0 0 0 1.904 2.09c1.411 1.3 2.822 1.466 4.083.483 1.301-1.018 1.478-2.503.486-4.07a26 26 0 0 0-2.498-3.228 762 762 0 0 0-5.172-5.762 2053 2053 0 0 1-3.158-3.506C19.79 1.364 18.765.702 17.707.693h-.02c-1.012 0-2.004.604-3.309 2.014-2.736 2.957-5.377 6.087-7.932 9.114q-1.423 1.686-2.851 3.364-.238.277-.49.553a7.7 7.7 0 0 0-1.575 2.214c-.352.892-.394 2.315.15 3.061a1.97 1.97 0 0 0 1.417.827"/></g><defs><clipPath id="a"><path fill="#fff" d="M.226.667h111.577V156.22H.226z"/></clipPath></defs></svg>
